actions/24/labplot-xy-equation-curve.svg

<?xml version="1.0" encoding="UTF-8" standalone="no"?>
<svg
   width="24"
   height="24"
   version="1.1"
   id="svg9"
   sodipodi:docname="labplot-xy-equation-curve.svg"
   inkscape:version="1.1.2 (0a00cf5339, 2022-02-04)"
   xmlns:inkscape="http://www.inkscape.org/namespaces/inkscape"
   xmlns:sodipodi="http://sodipodi.sourceforge.net/DTD/sodipodi-0.dtd"
   xmlns="http://www.w3.org/2000/svg"
   xmlns:svg="http://www.w3.org/2000/svg">
  <sodipodi:namedview
     id="namedview11"
     pagecolor="#111111"
     bordercolor="#666666"
     borderopacity="1.0"
     inkscape:pageshadow="2"
     inkscape:pageopacity="0"
     inkscape:pagecheckerboard="0"
     showgrid="false"
     inkscape:zoom="56.833333"
     inkscape:cx="11.991202"
     inkscape:cy="11.982405"
     inkscape:window-width="1482"
     inkscape:window-height="967"
     inkscape:window-x="0"
     inkscape:window-y="29"
     inkscape:window-maximized="1"
     inkscape:current-layer="g7" />
  <defs
     id="defs3">
    <style
       id="current-color-scheme"
       type="text/css">
   .ColorScheme-Text { color:#eeeeec; } .ColorScheme-Highlight { color:#367bf0; } .ColorScheme-NeutralText { color:#ffcc44; } .ColorScheme-PositiveText { color:#3db47e; } .ColorScheme-NegativeText { color:#dd4747; }
  </style>
  </defs>
  <g
     transform="matrix(1,0,0,1,4,4)"
     id="g7">
    <path
       style="fill:currentColor"
       class="ColorScheme-Text"
       d="M 8,1 C 7.0694,1 6.2704,1.4954 5.5547,2.1445 4.839,2.7936 4.1768,3.6209 3.4941,4.4277 2.6496,5.5947 0.4955,7.1652 0,7.4297 V 8.5 c 1.272,0 1.3661,0.7918 2.3984,1.852 0,0 2.4406,2.854 3.1563,3.503 C 6.2704,14.505 7.0695,15 8,15 c 0.9306,0 1.7296,-0.495 2.445,-1.145 0.716,-0.649 1.378,-1.476 2.061,-2.283 C 13.871,9.9587 14.271,8.5 16,8.5 v -1 c -0.784,0 -1.174,-0.7891 -1.174,-0.7891 l -2.32,-2.2832 c 0,0 -1.345,-1.6341 -2.061,-2.2832 C 9.7296,1.4954 8.9305,1 8,1 Z m 0,1 c 0.5694,0 1.1454,0.3171 1.7734,0.8867 0.498699,0.4526906 1.689674,1.8372771 2.15786,2.386935 C 12.052275,5.4157081 11.959,5.6621 11.959,5.6621 v 0 c -0.234,0.2648 -0.414,0.5914 -0.58,0.9688 -0.332,0.7547 -0.836,2.664 -0.836,2.664 l -0.6197907,2.426136 v 0 L 9.6619187,11.728334 7.7109,3.7871 c 0,0 -0.2586,-0.9626 -0.3828,-1.2949 C 7.2874,2.3834 7.2406,2.2977 7.1953,2.207 7.4677,2.0762 7.735,2 8,2 Z M 6.3065853,3.2727722 6.5451484,3.3657623 6.7422,4.0371 7.6094,7.8164 c 0,0 0.6236,2.7746 0.9258,3.8356 0.1511,0.531 0.4492,1.321 0.4492,1.321 0,0 0.1523,0.319 0.2578,0.455 l 0.0683,0.066 C 8.8578,13.823 8.4264,14 8,14 7.4306,14 6.8546,13.683 6.2266,13.113 5.5985,12.544 4.2559,10.928 4.2559,10.928 v 0 L 4.1816,10.564 C 4.4189,10.254 4.7539,9.4453 4.7539,9.4453 5.0715,8.5854 5.5215,6.4629 5.5215,6.4629 L 6.168,3.6406 c 0.037234,-0.1214894 0.089854,-0.2542539 0.1385853,-0.3678278 0.068274,-0.1591206 0,0 0,0 z M 4.9961,4.2031 4.543,6.2598 c 0,0 -0.4488,2.0857 -0.7266,2.8379 C 3.6789,9.4698 3.5283,9.7687 3.3906,9.9512 L 3.2695,9.8145 2.9727,8.6895 2.5801,7.4355 C 2.5214,7.2987 2.4533,7.1743 2.3711,7.0547 2.4277947,7.0055173 2.4930169,6.9450227 2.5649723,6.8754191 3.3646856,6.1018435 4.9961,4.2031 4.9961,4.2031 Z m 7.7969,2.0547 c 0.439,0.4627 0.908,0.8914 1.412,1.2539 0.110531,0.1020728 0.223755,0.2020182 0.341209,0.2979358 0.108887,0.088921 -0.03616,0.3212514 0.08122,0.401735 -0.08693,0.046631 0.0848,-0.05122 0,0 C 13.517298,8.8819205 12.586493,9.9294725 11.742,10.928 c -0.138305,0.163452 -0.273828,0.323615 -0.407968,0.481381 -0.132578,0.155928 0.131227,-0.152104 0,0 0.04911,-0.187529 -0.29667,0.07855 -0.246819,-0.12336 C 11.222116,10.739623 11.361394,10.146532 11.514,9.5391 11.748,8.6036 12.011,7.6792 12.295,7.0332 12.437,6.7102 12.587,6.4584 12.707,6.3223 12.765,6.2567 12.771,6.2687 12.793,6.2578 Z M 1.4146983,7.7768835 1.6417067,7.8543515 1.7962492,8.2958357 v 0 L 1.6524819,8.4075112 1.1807873,8.120641 v 0 l 0.02473,-0.2357904 z"
       id="path5"
       sodipodi:nodetypes="sscccccscccccccsscsccccccccccsccccccccscccccccscccccccccscccscscscscscccccccccccc" />
  </g>
</svg>

<svg xmlns="http://www.w3.org/2000/svg" width="24" height="24" version="1.1">
 <defs>
  <style id="current-color-scheme" type="text/css">
   .ColorScheme-Text { color:#eeeeec; } .ColorScheme-Highlight { color:#367bf0; } .ColorScheme-NeutralText { color:#ffcc44; } .ColorScheme-PositiveText { color:#3db47e; } .ColorScheme-NegativeText { color:#dd4747; }
  </style>
 </defs>
 <g transform="matrix(1,0,0,1,4,4)">
  <path style="fill:currentColor" class="ColorScheme-Text" d="M 8,1 C 7.0694,1 6.2704,1.4954 5.5547,2.1445 4.839,2.7936 4.1768,3.6209 3.4941,4.4277 2.6496,5.5947 0.4955,7.1652 0,7.4297 V 8.5 C 1.272,8.5 1.3661,9.2918 2.3984,10.352 2.3984,10.352 4.839,13.206 5.5547,13.855 6.2704,14.505 7.0695,15 8,15 8.9306,15 9.7296,14.505 10.445,13.855 11.161,13.206 11.823,12.379 12.506,11.572 13.871,9.9587 14.271,8.5 16,8.5 V 7.5 C 15.216,7.5 14.826,6.7109 14.826,6.7109 L 12.506,4.4277 C 12.506,4.4277 11.161,2.7936 10.445,2.1445 9.7296,1.4954 8.9305,1 8,1 Z M 8,2 C 8.5694,2 9.1454,2.3171 9.7734,2.8867 10.401,3.4564 12.125,5.502 12.125,5.502 L 11.959,5.6621 C 11.725,5.9269 11.545,6.2535 11.379,6.6309 11.047,7.3856 10.543,9.2949 10.543,9.2949 L 9.7891,12.246 7.7109,3.7871 C 7.7109,3.7871 7.4523,2.8245 7.3281,2.4922 7.2874,2.3834 7.2406,2.2977 7.1953,2.207 7.4677,2.0762 7.735,2 8,2 Z M 6.4355,2.9922 6.7422,4.0371 7.6094,7.8164 C 7.6094,7.8164 8.233,10.591 8.5352,11.652 8.6863,12.183 8.9844,12.973 8.9844,12.973 8.9844,12.973 9.1367,13.292 9.2422,13.428 L 9.3105,13.494 C 8.8578,13.823 8.4264,14 8,14 7.4306,14 6.8546,13.683 6.2266,13.113 5.5985,12.544 4.2559,10.928 4.2559,10.928 L 4.0586,10.705 4.1816,10.564 C 4.4189,10.254 4.7539,9.4453 4.7539,9.4453 5.0715,8.5854 5.5215,6.4629 5.5215,6.4629 L 6.168,3.6406 C 6.2574,3.3489 6.4355,2.9922 6.4355,2.9922 Z M 4.9961,4.2031 4.543,6.2598 C 4.543,6.2598 4.0942,8.3455 3.8164,9.0977 3.6789,9.4698 3.5283,9.7687 3.3906,9.9512 L 3.2695,9.8145 2.9727,8.6895 2.5801,7.4355 C 2.5214,7.2987 2.4533,7.1743 2.3711,7.0547 3.0579,6.4589 4.9961,4.2031 4.9961,4.2031 Z M 12.793,6.2578 C 13.232,6.7205 13.701,7.1492 14.205,7.5117 14.418,7.7084 14.641,7.8972 14.885,8.0645 13.66,8.7216 12.651,9.8532 11.742,10.928 11.467,11.253 11.203,11.565 10.939,11.871 11.121,11.176 11.305,10.371 11.514,9.5391 11.748,8.6036 12.011,7.6792 12.295,7.0332 12.437,6.7102 12.587,6.4584 12.707,6.3223 12.765,6.2567 12.771,6.2687 12.793,6.2578 Z M 1.584,7.6895 1.8848,8.5488 0.98242,8 Z"/>
 </g>
</svg>
